X:39
T:Nicole of Nancy
R:Reel
C:Pete Mac 1988
O:England.  For Nicole, born in Nancy, France
Z:Pete Mac Tunebook 2023 (see https://pghardy.net/tunebooks/).
Z:Creative Commons CC0 (Public Domain) licenced.
M:4/4
L:1/8
Q:1/4=210
K:G
Bc|"G"d2 dd d2 e2|d2 B6|"C"g3 e g2 e2|"G"d6 d2|"C"e3 f g2 a2|"G"b2 g4 b2|"D7"a3 g f2 e2|d4 B2 c2|
"G"d2 dd d2 e2|d2 B4 d2|"Em"g3 a b2 g2|e4 - e4|"A7"a3 g f2 e2|"D7"d3 c B2 A2|"G"G2 B2 "D7"B2 A2|"G"G4 "Em"z2z2||
"Em"B3 A B2 e2|d2 B6|E3 B,E2 F2|G6 A2|"G"B3 G B2 e2|d2 B2 d2 d2|"Em"G2 E2 E2 D2|E6 E2|
"G"G3 D G2 e2|d2 B6|"Em"G3 E G2 A2|B6 B2|"Am"c3 B c2 e2|"G"d2 B2 "D"A2 B2|"Em"G2 E4 D2|E4 "D7"z2z2||
"G"d2 B2-B2 G2|"C"g2 e2-e2 c2|"G"d2 B2-B2 G2|"D"A4-A4|"D7"f3 e d2 c2|d3 c B2 A2|"G"G2 D2 G2 A2|B2 B2 c2 ^c2|
"G"d2 B2-B2 G2|"C"g2 e2-e2 c2|"G"d2 B2-B2 G2|"C"e6 e2|"A7"a3 g f2 e2|"D7"d3 c B2 A2|"G"G2 B2-"D7"B2 A2|"G"G6|]

